source/img/icon-reset.svg

<svg width="19" height="20" viewBox="0 0 19 20" fill="none" xmlns="http://www.w3.org/2000/svg">
<path d="M18.867 8.81519C18.8028 8.40889 18.4243 8.1321 18.0217 8.19692C17.6191 8.26174 17.3448 8.64368 17.4091 9.04998C17.4098 9.05443 17.4105 9.05884 17.4113 9.06325C18.163 13.5292 15.185 17.7645 10.7596 18.5231C6.33423 19.2818 2.13737 16.2764 1.38561 11.8105C0.633854 7.34461 3.61194 3.1093 8.03727 2.35066C10.7588 1.88412 13.5289 2.84347 15.393 4.89814L12.1228 5.99769C11.7359 6.12759 11.5267 6.54934 11.6554 6.93975C11.6554 6.93984 11.6555 6.93997 11.6555 6.94005C11.7842 7.33046 12.2022 7.5416 12.589 7.41174C12.5892 7.4117 12.5893 7.41165 12.5893 7.41165L17.0186 5.92174C17.3201 5.82038 17.5236 5.53556 17.5235 5.21478V0.74498C17.5235 0.333532 17.193 0 16.7853 0C16.3776 0 16.0471 0.333532 16.0471 0.74498V3.46632C12.2454 -0.182677 6.23224 -0.0306424 2.61636 3.80587C-0.999508 7.64239 -0.848897 13.7106 2.95284 17.3597C6.75457 21.0087 12.7677 20.8567 16.3836 17.0201C18.4455 14.8323 19.3657 11.7922 18.867 8.81519Z" fill="url(#paint0_linear)"/>
<defs>
<linearGradient id="paint0_linear" x1="19" y1="20" x2="2.83122e-07" y2="20" gradientUnits="userSpaceOnUse">
<stop stop-color="#FF6E2F"/>
<stop offset="1" stop-color="#F84343"/>
</linearGradient>
</defs>
</svg>

<svg width="19" height="20" fill="none" xmlns="http://www.w3.org/2000/svg"><path d="M18.867 8.815a.739.739 0 00-.845-.618.744.744 0 00-.61.866c.751 4.466-2.227 8.702-6.652 9.46-4.426.759-8.623-2.247-9.374-6.713-.752-4.465 2.226-8.7 6.651-9.46a8.084 8.084 0 017.356 2.548l-3.27 1.1a.746.746 0 00-.468.942c.13.39.547.602.934.472l4.43-1.49a.744.744 0 00.505-.707V.745a.742.742 0 00-.74-.745.742.742 0 00-.738.745v2.721a9.44 9.44 0 00-13.43.34C-1 7.642-.85 13.71 2.952 17.36a9.44 9.44 0 0013.43-.34 9.645 9.645 0 002.484-8.205z" fill="url(#paint0_linear)"/><defs><linearGradient id="paint0_linear" x1="19" y1="20" x2="0" y2="20" gradientUnits="userSpaceOnUse"><stop stop-color="#FF6E2F"/><stop offset="1" stop-color="#F84343"/></linearGradient></defs></svg>
